X:1
P:The Countess of Loudon's Reel
R:Jig
C:Robert Mackintosh
C:from Hardie Press, 1997
M:6/8
K:D
L:1/8
|: A| "D" d3 fef|"D/F#"d3 AB=c| "G"BAB "Em"gfe|"E/G#"fed "A"^cBA| "D" d3 fef|"Bm"d3 "D"AGF|"Em"GAB "A7"EAG|"D"FDD D2 :|
A|"D"FAD FAD|"G"FBE "Em"FBE|"A"Ace "A7"gfe|"D"dAG "A"FGE|"D"FAD FAD|"G"GBE "Em"GBE|"A"Ace "A7"gfe|"D"d3 D2 A||
"D"FAD FAD|"G"GBE "Em"GBE|"A"Ace "A7"gfe|"D"dAG "A"FGE|"D"D2 d "A/C#"E2 e|"D"F2 f "Em"G2 g|"D"afd "A"ecA|"D"d3 d2|]
